src/assets/tools/bash.svg

<svg width="100" height="100" viewBox="0 0 100 100" fill="none" xmlns="http://www.w3.org/2000/svg">
<path d="M87.3558 20.4229L55.8304 1.69405C52.1016 -0.509343 47.4405 -0.509343 43.627 1.69405L12.1016 20.4229C8.37276 22.6262 5.99988 26.7788 5.99988 31.2703V68.7279C5.99988 73.2194 8.28801 77.2872 12.1016 79.5754L43.627 98.3042C45.4914 99.4059 47.61 99.9991 49.7287 99.9991C51.8473 99.9991 53.966 99.4059 55.8304 98.3042L87.3558 79.5754C91.0846 77.372 93.4575 73.2194 93.4575 68.7279V31.1856C93.4575 26.7788 91.1693 22.6262 87.3558 20.4229Z" fill="#121517"/>
<path d="M87.3559 20.4229L55.8305 1.69406C53.9661 0.592366 51.8474 -0.000854492 49.7288 -0.000854492C47.6102 -0.000854492 45.4915 0.592366 43.6271 1.69406L12.1017 20.4229C8.37288 22.6263 6 26.7788 6 31.2703V68.7279C6 73.2195 8.28814 77.2873 12.1017 79.5754L43.6271 98.3042C45.4915 99.4059 47.6102 99.9991 49.7288 99.9991C51.8474 99.9991 53.9661 99.4059 55.8305 98.3042L87.3559 79.5754C91.0847 77.372 93.4576 73.2195 93.4576 68.7279V31.1856C93.4576 26.7788 91.1695 22.6263 87.3559 20.4229ZM44.7288 96.2703L13.2034 77.5415C10.1525 75.6771 8.20339 72.2873 8.20339 68.6432V31.1856C8.20339 27.5415 10.1525 24.0669 13.2034 22.2873L44.7288 3.55847C46.2542 2.62626 47.9491 2.20253 49.7288 2.20253C51.5085 2.20253 53.2034 2.71101 54.7288 3.55847L86.2542 22.2873C88.8813 23.8127 90.5762 26.5246 91.0847 29.4907C90.0678 27.2873 87.6949 26.6093 84.8983 28.2195L55.1525 46.694C51.4237 48.8974 48.7118 51.2703 48.7118 55.7618V92.5415C48.7118 95.2533 49.8135 96.9483 51.4237 97.4567C50.9152 97.5415 50.322 97.6262 49.7288 97.6262C48.0339 97.711 46.2542 97.2025 44.7288 96.2703Z" fill="#2A3238"/>
<path d="M79.1355 72.2872L71.2541 76.9482C71.0847 77.0329 70.9152 77.2024 70.9152 77.4566V79.4905C70.9152 79.7448 71.0847 79.8295 71.2541 79.7448L79.2202 74.9143C79.3897 74.8295 79.4745 74.5753 79.4745 74.321V72.5414C79.4745 72.2872 79.305 72.2024 79.1355 72.2872Z" fill="#4DA925"/>
<path d="M62.3557 54.9991C62.61 54.8296 62.7795 54.9991 62.8642 55.3381V58.05C63.9659 57.6262 64.9829 57.4567 65.9151 57.711C66.0846 57.7957 66.1693 58.05 66.0846 58.3042L65.4913 60.6771C65.4066 60.8466 65.3218 61.0161 65.2371 61.1856C65.1524 61.2703 65.1524 61.2703 65.0676 61.2703C64.9829 61.2703 64.8981 61.355 64.8134 61.2703C64.3896 61.1855 63.4574 60.9313 61.932 61.7788C60.3218 62.6262 59.7286 63.9822 59.8134 64.9991C59.8134 66.2703 60.4913 66.6093 62.61 66.6093C65.4913 66.694 66.7625 67.9652 66.8473 70.8466C66.8473 73.7279 65.3218 76.8635 62.949 78.7279L63.0337 81.4398C63.0337 81.7788 62.8642 82.1177 62.61 82.2872L60.9998 83.2194C60.7456 83.3889 60.5761 83.2194 60.4913 82.8805V80.2533C59.1354 80.8466 57.7795 80.9313 56.8473 80.5923C56.6778 80.5076 56.593 80.2533 56.6778 79.9991L57.271 77.5415C57.3557 77.372 57.4405 77.1178 57.5252 77.033C57.61 76.9483 57.61 76.9483 57.6947 76.9483C57.7795 76.8635 57.8642 76.8635 57.949 76.9483C58.8812 77.2872 60.1524 77.1177 61.254 76.5245C62.7795 75.7618 63.7117 74.2364 63.7117 72.711C63.7117 71.355 62.949 70.7618 61.1693 70.7618C58.8812 70.7618 56.7625 70.3381 56.6778 66.9483C56.6778 64.1516 58.1185 61.2703 60.4066 59.4906V56.7788C60.4066 56.4398 60.5761 56.1008 60.8303 55.9313L62.3557 54.9991Z" fill="white"/>
</svg>

<svg xmlns="http://www.w3.org/2000/svg" width="100" height="100" fill="none"><path fill="#121517" d="M87.356 20.423 55.83 1.694c-3.728-2.203-8.39-2.203-12.203 0L12.102 20.423C8.372 22.626 6 26.779 6 31.27v37.458c0 4.491 2.288 8.56 6.102 10.847l31.525 18.73c1.864 1.1 3.983 1.694 6.102 1.694 2.118 0 4.237-.593 6.101-1.695l31.526-18.729c3.729-2.203 6.102-6.356 6.102-10.847V31.186c0-4.407-2.289-8.56-6.102-10.763Z"/><path fill="#2A3238" d="M87.356 20.423 55.83 1.694C53.966.592 51.847 0 49.729 0c-2.119 0-4.237.593-6.102 1.695L12.102 20.423C8.372 22.626 6 26.779 6 31.27v37.458c0 4.492 2.288 8.56 6.102 10.847l31.525 18.73c1.864 1.1 3.983 1.694 6.102 1.694 2.118 0 4.237-.593 6.102-1.695l31.525-18.729c3.729-2.203 6.102-6.356 6.102-10.847V31.186c0-4.407-2.288-8.56-6.102-10.763ZM44.729 96.27 13.203 77.542c-3.05-1.865-5-5.255-5-8.899V31.186c0-3.645 1.95-7.12 5-8.899L44.73 3.558c1.525-.932 3.22-1.355 5-1.355 1.78 0 3.474.508 5 1.355l31.525 18.73c2.627 1.525 4.322 4.237 4.83 7.203-1.016-2.204-3.39-2.882-6.186-1.271L55.153 46.694c-3.73 2.203-6.441 4.576-6.441 9.068v36.78c0 2.711 1.101 4.406 2.712 4.915-.509.085-1.102.17-1.695.17-1.695.084-3.475-.424-5-1.357Z"/><path fill="#4DA925" d="m79.136 72.287-7.882 4.661c-.17.085-.339.254-.339.509v2.034c0 .254.17.338.34.254l7.965-4.83c.17-.086.255-.34.255-.594v-1.78c0-.254-.17-.339-.34-.254Z"/><path fill="#fff" d="M62.356 55c.254-.17.423 0 .508.338v2.712c1.102-.424 2.119-.593 3.051-.339.17.085.254.339.17.593l-.594 2.373-.254.509c-.085.084-.085.084-.17.084-.084 0-.169.085-.254 0-.423-.085-1.356-.339-2.881.509-1.61.847-2.203 2.203-2.119 3.22 0 1.271.678 1.61 2.797 1.61 2.881.085 4.153 1.356 4.237 4.238 0 2.88-1.525 6.017-3.898 7.88l.085 2.713c0 .339-.17.678-.424.847L61 83.22c-.254.17-.424 0-.509-.338v-2.628c-1.356.594-2.712.678-3.644.34-.17-.085-.254-.34-.17-.594l.594-2.457c.085-.17.17-.424.254-.509.085-.085.085-.085.17-.085.084-.084.17-.084.254 0 .932.34 2.203.17 3.305-.423 1.526-.763 2.458-2.289 2.458-3.814 0-1.356-.763-1.95-2.543-1.95-2.288 0-4.406-.423-4.491-3.813 0-2.796 1.44-5.678 3.729-7.457v-2.712c0-.34.17-.678.423-.848L62.356 55Z"/></svg>
